assets/fc/fc-approval.svg

<svg xmlns="http://www.w3.org/2000/svg" width="100%" height="100%" viewBox="0 0 48 48"><path fill="#8BC34A" d="M24 3l4.7 3.6 5.8-.8 2.2 5.5 5.5 2.2-.8 5.8L45 24l-3.6 4.7.8 5.8-5.5 2.2-2.2 5.5-5.8-.8L24 45l-4.7-3.6-5.8.8-2.2-5.5-5.5-2.2.8-5.8L3 24l3.6-4.7-.8-5.8 5.5-2.2 2.2-5.5 5.8.8z"/><path fill="#CCFF90" d="M34.6 14.6L21 28.2l-5.6-5.6-2.8 2.8 8.4 8.4 16.4-16.4z"/></svg>

<svg xmlns="http://www.w3.org/2000/svg" width="100%" height="100%" viewBox="0 0 48 48"><path fill="#8BC34A" d="M24 3L28.7 6.6 34.5 5.8 36.7 11.3 42.2 13.5 41.4 19.3 45 24 41.4 28.7 42.2 34.5 36.7 36.7 34.5 42.2 28.7 41.4 24 45 19.3 41.4 13.5 42.2 11.3 36.7 5.8 34.5 6.6 28.7 3 24 6.6 19.3 5.8 13.5 11.3 11.3 13.5 5.8 19.3 6.6z"/><path fill="#CCFF90" d="M34.6 14.6L21 28.2 15.4 22.6 12.6 25.4 21 33.8 37.4 17.4z"/></svg>
